public/assets/rightQuotes.svg

<svg width="50" height="50" viewBox="0 0 50 50" fill="none" xmlns="http://www.w3.org/2000/svg">
<path d="M49.9888 15.3208C49.9888 15.3154 49.9894 15.3099 49.9894 15.3045C49.9894 8.73099 44.6606 3.40222 38.0871 3.40222C31.5135 3.40222 26.1848 8.73089 26.1848 15.3045C26.1848 21.8782 31.5141 27.2069 38.0872 27.2069C39.4381 27.2069 40.7313 26.9713 41.9414 26.5564C39.2635 41.9183 27.2842 51.8251 38.3889 43.6716C50.7025 34.6302 50.0026 15.6677 49.9888 15.3208Z" fill="#B86767"/>
<path d="M11.9023 27.2068C13.2533 27.2068 14.5465 26.9712 15.7571 26.5563C13.0786 41.9182 1.09922 51.825 12.2041 43.6715C24.5177 34.6302 23.8178 15.6677 23.8039 15.3208C23.8039 15.3154 23.8045 15.3099 23.8045 15.3045C23.8045 8.73099 18.4759 3.40222 11.9023 3.40222C5.32867 3.40222 0 8.73089 0 15.3045C0 21.8782 5.32926 27.2068 11.9023 27.2068Z" fill="#B86767"/>
</svg>

<svg width="50" height="50" fill="none" xmlns="http://www.w3.org/2000/svg"><path d="M49.989 15.32v-.015c0-6.574-5.328-11.903-11.902-11.903-6.574 0-11.902 5.329-11.902 11.902 0 6.574 5.33 11.903 11.902 11.903 1.351 0 2.644-.236 3.854-.65-2.678 15.361-14.657 25.268-3.552 17.115 12.313-9.042 11.614-28.004 11.6-28.351ZM11.902 27.207c1.351 0 2.645-.236 3.855-.65C13.08 41.917 1.1 51.824 12.204 43.671c12.314-9.042 11.614-28.004 11.6-28.351v-.016c0-6.574-5.328-11.903-11.902-11.903C5.33 3.402 0 8.731 0 15.304c0 6.574 5.33 11.903 11.902 11.903Z" fill="#B86767"/></svg>
